src/assets/img/icons/duotone-icons/Devices/iPhone-x-back.svg

<?xml version="1.0" encoding="UTF-8"?>
<svg width="24px" height="24px" viewBox="0 0 24 24" version="1.1" xmlns="http://www.w3.org/2000/svg" xmlns:xlink="http://www.w3.org/1999/xlink">
    <!-- Generator: Sketch 52.2 (67145) - http://www.bohemiancoding.com/sketch -->
    <title>Stockholm-icons / Devices / iPhone-x-back</title>
    <desc>Created with Sketch.</desc>
    <g id="Stockholm-icons-/-Devices-/-iPhone-x-back" stroke="none" stroke-width="1" fill="none" fill-rule="evenodd">
        <rect id="bound" x="0" y="0" width="24" height="24"></rect>
        <path d="M8,2 L16,2 C17.1045695,2 18,2.8954305 18,4 L18,20 C18,21.1045695 17.1045695,22 16,22 L8,22 C6.8954305,22 6,21.1045695 6,20 L6,4 C6,2.8954305 6.8954305,2 8,2 Z M8,3 C7.44771525,3 7,3.44771525 7,4 L7,6 C7,6.55228475 7.44771525,7 8,7 C8.55228475,7 9,6.55228475 9,6 L9,4 C9,3.44771525 8.55228475,3 8,3 Z" id="Combined-Shape" fill="#335EEA"></path>
    </g>
</svg>

<svg width="24" height="24" viewBox="0 0 24 24" xmlns="http://www.w3.org/2000/svg"><g fill="none" fill-rule="evenodd"><path d="M0 0h24v24H0z"/><path d="M8 2h8a2 2 0 012 2v16a2 2 0 01-2 2H8a2 2 0 01-2-2V4a2 2 0 012-2zm0 1a1 1 0 00-1 1v2a1 1 0 102 0V4a1 1 0 00-1-1z" fill="#335EEA"/></g></svg>
